src/components/DocumentSelector/assets/icon-identity.svg

<svg width="82" height="51" viewBox="0 0 82 51" xmlns="http://www.w3.org/2000/svg">
    <title>national-id-card</title>
    <path d="M4 0C1.8 0 0 1.8 0 4v42.9c0 2.2 1.8 4 4 4h73.3c2.2 0 4-1.8 4-4V4c0-2.2-1.8-4-4-4H4zm17.1 37.3H9.7l.2-1.2c.5-1.3.5-2.2 1.9-2.8 1.8-.8 4.7-1.6 5.7-2.5.4-.4.6-1 .6-1.6 0-.2 0-.4-.1-.6-.8-.3-1.3-1.9-1.5-2.4-.2 0-.5-.2-.6-.4-.9-1.5-1.3-2.6-.4-2.7-.1-.5-.1-.9-.1-1.4l-.5-1.5c.1-.5.2-1 .4-1.5.4-1.2-.1-2.1 1.6-1.9 0 0-.2-1.7 4.4-2.8 4.6-1.1 3.3 1.5 5.7 2.7.2.7 0 1.4-.5 1.9.5 1.5.6 3.1.3 4.6.8.1.5 1.2-.4 2.7-.1.2-.4.3-.6.4-.2.5-.7 2.1-1.5 2.4-.1.2-.1.4-.1.6 0 .6.2 1.2.6 1.6 1 1 3.9 1.8 5.7 2.5 1.4.6 1.4 1.5 1.9 2.8l.2 1.2c-.1-.1-11.6-.1-11.5-.1zm17-18.5c0-.3.2-.5.4-.5h30c.3 0 .5.2.5.4v.1c0 .3-.2.5-.4.5h-30c-.3 0-.5-.2-.5-.5zm0 6.7c0-.3.2-.5.4-.5h30c.3 0 .5.2.5.4v.1c0 .3-.2.5-.4.5h-30c-.3 0-.5-.2-.5-.5zm0 6.6c0-.3.2-.5.4-.5H54c.3 0 .5.2.5.4v.1c0 .3-.2.5-.4.5H38.6c-.3 0-.5-.2-.5-.5z" fill-rule="nonzero" fill="#8A9293" />
</svg>

<?xml version="1.0" encoding="UTF-8" standalone="no"?>
<svg width="82px" height="51px" viewBox="0 0 82 51" version="1.1" xmlns="http://www.w3.org/2000/svg" xmlns:xlink="http://www.w3.org/1999/xlink">
    <!-- Generator: Sketch 46.1 (44463) - http://www.bohemiancoding.com/sketch -->
    <title>national-id-card</title>
    <desc>Created with Sketch.</desc>
    <defs></defs>
    <g id="Symbols" stroke="none" stroke-width="1" fill="none" fill-rule="evenodd">
        <g id="icons/id-card/default" transform="translate(-19.000000, -39.000000)" fill-rule="nonzero" fill="#8A9293">
            <g id="national-id-card" transform="translate(19.000000, 39.000000)">
                <path d="M4,0 C1.8,0 0,1.8 0,4 L0,4 L0,46.9 C0,49.1 1.8,50.9 4,50.9 L77.3,50.9 C79.5,50.9 81.3,49.1 81.3,46.9 L81.3,4 C81.3,1.8 79.5,0 77.3,0 L4,0 Z M21.1,37.3 L9.7,37.3 L9.9,36.1 C10.4,34.8 10.4,33.9 11.8,33.3 C13.6,32.5 16.5,31.7 17.5,30.8 C17.9,30.4 18.1,29.8 18.1,29.2 C18.1,29 18.1,28.8 18,28.6 C17.2,28.3 16.7,26.7 16.5,26.2 C16.3,26.2 16,26 15.9,25.8 C15,24.3 14.6,23.2 15.5,23.1 C15.4,22.6 15.4,22.2 15.4,21.7 L14.9,20.2 C15,19.7 15.1,19.2 15.3,18.7 C15.7,17.5 15.2,16.6 16.9,16.8 C16.9,16.8 16.7,15.1 21.3,14 C25.9,12.9 24.6,15.5 27,16.7 C27.2,17.4 27,18.1 26.5,18.6 C27,20.1 27.1,21.7 26.8,23.2 C27.6,23.3 27.3,24.4 26.4,25.9 C26.3,26.1 26,26.2 25.8,26.3 C25.6,26.8 25.1,28.4 24.3,28.7 C24.2,28.9 24.2,29.1 24.2,29.3 C24.2,29.9 24.4,30.5 24.8,30.9 C25.8,31.9 28.7,32.7 30.5,33.4 C31.9,34 31.9,34.9 32.4,36.2 L32.6,37.4 C32.5,37.3 21,37.3 21.1,37.3 Z M38.1,18.8 C38.1,18.5 38.3,18.3 38.5,18.3 C38.5,18.3 38.5,18.3 38.6,18.3 L68.5,18.3 C68.8,18.3 69,18.5 69,18.7 C69,18.7 69,18.7 69,18.8 L69,18.8 C69,19.1 68.8,19.3 68.6,19.3 C68.6,19.3 68.6,19.3 68.5,19.3 L38.6,19.3 C38.3,19.3 38.1,19.1 38.1,18.8 C38.1,18.8 38.1,18.8 38.1,18.8 Z M38.1,25.5 C38.1,25.2 38.3,25 38.5,25 C38.5,25 38.5,25 38.6,25 L68.5,25 C68.8,25 69,25.2 69,25.4 C69,25.4 69,25.4 69,25.5 L69,25.5 C69,25.8 68.8,26 68.6,26 C68.6,26 68.6,26 68.5,26 L38.6,26 C38.3,26 38.1,25.8 38.1,25.5 Z M38.1,32.1 C38.1,31.8 38.3,31.6 38.5,31.6 C38.5,31.6 38.5,31.6 38.6,31.6 L54,31.6 C54.3,31.6 54.5,31.8 54.5,32 C54.5,32 54.5,32 54.5,32.1 L54.5,32.1 C54.5,32.4 54.3,32.6 54.1,32.6 C54.1,32.6 54.1,32.6 54,32.6 L38.6,32.6 C38.3,32.6 38.1,32.4 38.1,32.1 C38.1,32.1 38.1,32.1 38.1,32.1 Z" id="Shape"></path>
            </g>
        </g>
    </g>
</svg>
